assets/icons/add_user.svg

<svg width="23" height="22" viewBox="0 0 23 22" fill="none" xmlns="http://www.w3.org/2000/svg">
<path fill-rule="evenodd" clip-rule="evenodd" d="M16.6926 11.688C17.1989 11.688 17.6093 12.0984 17.6093 12.6047V14.8963H19.901C20.4072 14.8963 20.8176 15.3067 20.8176 15.813C20.8176 16.3193 20.4072 16.7297 19.901 16.7297H17.6093V19.0213C17.6093 19.5276 17.1989 19.938 16.6926 19.938C16.1864 19.938 15.776 19.5276 15.776 19.0213V16.7297H13.4843C12.978 16.7297 12.5676 16.3193 12.5676 15.813C12.5676 15.3067 12.978 14.8963 13.4843 14.8963H15.776V12.6047C15.776 12.0984 16.1864 11.688 16.6926 11.688Z" fill="white"/>
<path d="M14.6301 19.0213H3.63013C3.25043 19.0213 2.94263 18.7135 2.94263 18.3338C2.94263 14.9636 5.2895 12.1415 8.43814 11.4125C6.57132 10.7506 5.23429 8.9692 5.23429 6.87549C5.23429 4.21762 7.38892 2.06299 10.0468 2.06299C12.7047 2.06299 14.8593 4.21762 14.8593 6.87549C14.8593 8.9692 13.5222 10.7506 11.6555 11.4125C12.7704 11.6707 13.7849 12.1912 14.6301 12.9057V13.7505H13.4843C12.3452 13.7505 11.4218 14.6739 11.4218 15.813C11.4218 16.952 12.3452 17.8755 13.4843 17.8755H14.6301V19.0213Z" fill="white"/>
</svg>

<svg xmlns="http://www.w3.org/2000/svg" width="23" height="22" fill="none" viewBox="0 0 23 22"><path fill="#fff" fill-rule="evenodd" d="M16.693 11.688c.506 0 .916.41.916.917v2.291h2.292a.917.917 0 0 1 0 1.834h-2.292v2.291a.917.917 0 1 1-1.833 0V16.73h-2.292a.917.917 0 1 1 0-1.834h2.292v-2.291c0-.507.41-.917.917-.917" clip-rule="evenodd"/><path fill="#fff" d="M14.63 19.021h-11a.687.687 0 0 1-.687-.687 7.11 7.11 0 0 1 5.495-6.921 4.814 4.814 0 0 1 1.609-9.35 4.812 4.812 0 0 1 1.608 9.35 7.1 7.1 0 0 1 2.975 1.493v.845h-1.146a2.062 2.062 0 1 0 0 4.124h1.146z"/></svg>
